assets/sun-fill.svg

<svg xmlns="http://www.w3.org/2000/svg" fill="none" viewBox="0 0 28 28">
  <path fill="#2A2238" d="M21 14c0 1.8565-.7375 3.637-2.0503 4.9497C17.637 20.2625 15.8565 21 14 21s-3.637-.7375-4.94975-2.0503C7.7375 17.637 7 15.8565 7 14s.7375-3.637 2.05025-4.94975C10.363 7.7375 12.1435 7 14 7s3.637.7375 4.9497 2.05025C20.2625 10.363 21 12.1435 21 14ZM14 0c.2321 0 .4546.0921873.6187.256282.1641.164094.2563.386654.2563.618718v3.5c0 .23206-.0922.45462-.2563.61872-.1641.16409-.3866.25628-.6187.25628-.2321 0-.4546-.09219-.6187-.25628-.1641-.1641-.2563-.38666-.2563-.61872v-3.5c0-.232064.0922-.454624.2563-.618718C13.5454.0921873 13.7679 0 14 0Zm0 22.75c.2321 0 .4546.0922.6187.2563.1641.1641.2563.3866.2563.6187v3.5c0 .2321-.0922.4546-.2563.6187-.1641.1641-.3866.2563-.6187.2563-.2321 0-.4546-.0922-.6187-.2563-.1641-.1641-.2563-.3866-.2563-.6187v-3.5c0-.2321.0922-.4546.2563-.6187.1641-.1641.3866-.2563.6187-.2563ZM28 14c0 .2321-.0922.4546-.2563.6187-.1641.1641-.3866.2563-.6187.2563h-3.5c-.2321 0-.4546-.0922-.6187-.2563-.1641-.1641-.2563-.3866-.2563-.6187 0-.2321.0922-.4546.2563-.6187.1641-.1641.3866-.2563.6187-.2563h3.5c.2321 0 .4546.0922.6187.2563.1641.1641.2563.3866.2563.6187ZM5.25 14c0 .2321-.09219.4546-.25628.6187-.1641.1641-.38666.2563-.61872.2563h-3.5c-.232064 0-.454624-.0922-.618718-.2563C.0921873 14.4546 0 14.2321 0 14c0-.2321.0921873-.4546.256282-.6187.164094-.1641.386654-.2563.618718-.2563h3.5c.23206 0 .45462.0922.61872.2563.16409.1641.25628.3866.25628.6187Zm18.6497-9.89975c.1641.16409.2562.38661.2562.61863 0 .23201-.0921.45453-.2562.61862l-2.4744 2.47625c-.0814.08124-.178.14566-.2842.18958-.1063.04392-.2201.06649-.3351.06641-.2322-.00017-.4548-.09256-.6189-.25687-.0812-.08135-.1456-.17791-.1896-.28416-.0439-.10625-.0664-.22011-.0664-.33508.0002-.23219.0926-.45481.2569-.61888l2.4745-2.4745c.1641-.16404.3866-.25619.6186-.25619.232 0 .4546.09215.6186.25619ZM7.812 20.188c.16404.1641.25619.3866.25619.6186 0 .232-.09215.4546-.25619.6187l-2.4745 2.4744c-.16503.1594-.38605.2476-.61548.2456-.22942-.002-.44888-.094-.61111-.2562-.16223-.1622-.25426-.3817-.25625-.6111-.00199-.2294.0862-.4505.24559-.6155l2.4745-2.4745c.16409-.164.38661-.2562.61862-.2562.23202 0 .45454.0922.61863.2562Zm16.0877 3.7117c-.164.1641-.3866.2562-.6186.2562-.232 0-.4545-.0921-.6186-.2562l-2.4745-2.4744c-.1594-.1651-.2476-.3861-.2456-.6155.002-.2294.094-.4489.2563-.6111.1622-.1623.3817-.2543.6111-.2563.2294-.002.4504.0862.6155.2456l2.4744 2.4745c.1641.1641.2562.3866.2562.6186 0 .232-.0921.4546-.2562.6186ZM7.812 7.81375c-.16409.16404-.38661.25619-.61863.25619-.23201 0-.45453-.09215-.61862-.25619L4.10025 5.3375c-.08357-.08072-.15023-.17727-.19609-.28402-.04586-.10675-.06999-.22157-.071-.33775-.00101-.11619.02113-.23141.06512-.33894.044-.10753.10897-.20523.19112-.28739.08216-.08215.17986-.14712.28739-.19112.10753-.04399.22275-.06613.33894-.06512.11618.00101.231.02514.33775.071.10675.04586.2033.11252.28402.19609l2.4745 2.4745c.08149.08128.14614.17784.19025.28414.04411.10631.06681.22027.06681.33536s-.0227.22906-.06681.33536c-.04411.1063-.10876.20286-.19025.28414Z"/>
</svg>

<svg width="28" height="28" viewBox="0 0 28 28" fill="none" xmlns="http://www.w3.org/2000/svg">
<path d="M21 14C21 15.8565 20.2625 17.637 18.9497 18.9497C17.637 20.2625 15.8565 21 14 21C12.1435 21 10.363 20.2625 9.05025 18.9497C7.7375 17.637 7 15.8565 7 14C7 12.1435 7.7375 10.363 9.05025 9.05025C10.363 7.7375 12.1435 7 14 7C15.8565 7 17.637 7.7375 18.9497 9.05025C20.2625 10.363 21 12.1435 21 14V14ZM14 0C14.2321 0 14.4546 0.0921873 14.6187 0.256282C14.7828 0.420376 14.875 0.642936 14.875 0.875V4.375C14.875 4.60706 14.7828 4.82962 14.6187 4.99372C14.4546 5.15781 14.2321 5.25 14 5.25C13.7679 5.25 13.5454 5.15781 13.3813 4.99372C13.2172 4.82962 13.125 4.60706 13.125 4.375V0.875C13.125 0.642936 13.2172 0.420376 13.3813 0.256282C13.5454 0.0921873 13.7679 0 14 0V0ZM14 22.75C14.2321 22.75 14.4546 22.8422 14.6187 23.0063C14.7828 23.1704 14.875 23.3929 14.875 23.625V27.125C14.875 27.3571 14.7828 27.5796 14.6187 27.7437C14.4546 27.9078 14.2321 28 14 28C13.7679 28 13.5454 27.9078 13.3813 27.7437C13.2172 27.5796 13.125 27.3571 13.125 27.125V23.625C13.125 23.3929 13.2172 23.1704 13.3813 23.0063C13.5454 22.8422 13.7679 22.75 14 22.75V22.75ZM28 14C28 14.2321 27.9078 14.4546 27.7437 14.6187C27.5796 14.7828 27.3571 14.875 27.125 14.875H23.625C23.3929 14.875 23.1704 14.7828 23.0063 14.6187C22.8422 14.4546 22.75 14.2321 22.75 14C22.75 13.7679 22.8422 13.5454 23.0063 13.3813C23.1704 13.2172 23.3929 13.125 23.625 13.125H27.125C27.3571 13.125 27.5796 13.2172 27.7437 13.3813C27.9078 13.5454 28 13.7679 28 14ZM5.25 14C5.25 14.2321 5.15781 14.4546 4.99372 14.6187C4.82962 14.7828 4.60706 14.875 4.375 14.875H0.875C0.642936 14.875 0.420376 14.7828 0.256282 14.6187C0.0921873 14.4546 0 14.2321 0 14C0 13.7679 0.0921873 13.5454 0.256282 13.3813C0.420376 13.2172 0.642936 13.125 0.875 13.125H4.375C4.60706 13.125 4.82962 13.2172 4.99372 13.3813C5.15781 13.5454 5.25 13.7679 5.25 14ZM23.8997 4.10025C24.0638 4.26434 24.1559 4.48686 24.1559 4.71888C24.1559 4.95089 24.0638 5.17341 23.8997 5.3375L21.4253 7.81375C21.3439 7.89499 21.2473 7.95941 21.1411 8.00333C21.0348 8.04725 20.921 8.06982 20.806 8.06974C20.5738 8.06957 20.3512 7.97718 20.1871 7.81287C20.1059 7.73152 20.0415 7.63496 19.9975 7.52871C19.9536 7.42246 19.9311 7.3086 19.9311 7.19363C19.9313 6.96144 20.0237 6.73882 20.188 6.57475L22.6625 4.10025C22.8266 3.93621 23.0491 3.84406 23.2811 3.84406C23.5131 3.84406 23.7357 3.93621 23.8997 4.10025V4.10025ZM7.812 20.188C7.97604 20.3521 8.06819 20.5746 8.06819 20.8066C8.06819 21.0386 7.97604 21.2612 7.812 21.4253L5.3375 23.8997C5.17247 24.0591 4.95145 24.1473 4.72202 24.1453C4.4926 24.1433 4.27314 24.0513 4.11091 23.8891C3.94868 23.7269 3.85665 23.5074 3.85466 23.278C3.85267 23.0486 3.94086 22.8275 4.10025 22.6625L6.57475 20.188C6.73884 20.024 6.96136 19.9318 7.19337 19.9318C7.42539 19.9318 7.64791 20.024 7.812 20.188V20.188ZM23.8997 23.8997C23.7357 24.0638 23.5131 24.1559 23.2811 24.1559C23.0491 24.1559 22.8266 24.0638 22.6625 23.8997L20.188 21.4253C20.0286 21.2602 19.9404 21.0392 19.9424 20.8098C19.9444 20.5804 20.0364 20.3609 20.1987 20.1987C20.3609 20.0364 20.5804 19.9444 20.8098 19.9424C21.0392 19.9404 21.2602 20.0286 21.4253 20.188L23.8997 22.6625C24.0638 22.8266 24.1559 23.0491 24.1559 23.2811C24.1559 23.5131 24.0638 23.7357 23.8997 23.8997ZM7.812 7.81375C7.64791 7.97779 7.42539 8.06994 7.19337 8.06994C6.96136 8.06994 6.73884 7.97779 6.57475 7.81375L4.10025 5.3375C4.01668 5.25678 3.95002 5.16023 3.90416 5.05348C3.8583 4.94673 3.83417 4.83191 3.83316 4.71573C3.83215 4.59954 3.85429 4.48432 3.89828 4.37679C3.94228 4.26926 4.00725 4.17156 4.0894 4.0894C4.17156 4.00725 4.26926 3.94228 4.37679 3.89828C4.48432 3.85429 4.59954 3.83215 4.71573 3.83316C4.83191 3.83417 4.94673 3.8583 5.05348 3.90416C5.16023 3.95002 5.25678 4.01668 5.3375 4.10025L7.812 6.57475C7.89349 6.65603 7.95814 6.75259 8.00225 6.85889C8.04636 6.9652 8.06906 7.07916 8.06906 7.19425C8.06906 7.30934 8.04636 7.42331 8.00225 7.52961C7.95814 7.63591 7.89349 7.73247 7.812 7.81375V7.81375Z" fill="#2A2238"/>
</svg>
